outputs/icons/social/certified_round.svg

<svg xmlns="http://www.w3.org/2000/svg" width="1200" height="1200" fill="none"><path fill="#000" d="M1000 350H750V200c0-55-45-100-100-100H550c-55 0-100 45-100 100v150H200c-55 0-100 45-100 100v550c0 55 45 100 100 100h800c55 0 100-45 100-100V450c0-55-45-100-100-100M450 600c41.5 0 75 33.5 75 75s-33.5 75-75 75-75-33.5-75-75 33.5-75 75-75m150 275c0 13.805-11.195 25-25 25H325c-13.807 0-25-11.195-25-25v-12.5c0-50 100-75 150-75s150 25 150 75zm50-442.5c0 9.665-7.835 17.5-17.5 17.5h-65c-9.665 0-17.5-7.835-17.5-17.5v-215c0-9.665 7.835-17.5 17.5-17.5h65c9.665 0 17.5 7.835 17.5 17.5zm250 375c0 9.665-7.835 17.5-17.5 17.5h-165c-9.665 0-17.5-7.835-17.5-17.5v-40c0-9.665 7.835-17.5 17.5-17.5h165c9.665 0 17.5 7.835 17.5 17.5zm0-150c0 9.665-7.835 17.5-17.5 17.5h-165c-9.665 0-17.5-7.835-17.5-17.5v-40c0-9.665 7.835-17.5 17.5-17.5h165c9.665 0 17.5 7.835 17.5 17.5z"/></svg>

<svg width="1200" height="1200" viewBox="0 0 1200 1200" fill="none" xmlns="http://www.w3.org/2000/svg"><path d="M1000 350H750V200C750 145 705 100 650 100H550C495 100 450 145 450 200V350H200C145 350 100 395 100 450V1000C100 1055 145 1100 200 1100H1000C1055 1100 1100 1055 1100 1000V450C1100 395 1055 350 1000 350ZM450 600C491.5 600 525 633.5 525 675C525 716.5 491.5 750 450 750C408.5 750 375 716.5 375 675C375 633.5 408.5 600 450 600ZM600 875C600 888.805 588.805 900 575 900H325C311.193 900 300 888.805 300 875V862.5C300 812.5 400 787.5 450 787.5C500 787.5 600 812.5 600 862.5V875ZM650 432.5C650 442.165 642.165 450 632.5 450H567.5C557.835 450 550 442.165 550 432.5V217.5C550 207.835 557.835 200 567.5 200H632.5C642.165 200 650 207.835 650 217.5V432.5ZM900 807.5C900 817.165 892.165 825 882.5 825H717.5C707.835 825 700 817.165 700 807.5V767.5C700 757.835 707.835 750 717.5 750H882.5C892.165 750 900 757.835 900 767.5V807.5ZM900 657.5C900 667.165 892.165 675 882.5 675H717.5C707.835 675 700 667.165 700 657.5V617.5C700 607.835 707.835 600 717.5 600H882.5C892.165 600 900 607.835 900 617.5V657.5Z" fill="#1D1E23"/></svg>
